berloni/img/features/feature-1.svg

<svg width="80" height="80" viewBox="0 0 80 80" fill="none" xmlns="http://www.w3.org/2000/svg">
<path d="M79.9945 33.1347C79.9942 32.3664 79.4353 31.7122 78.6766 31.592L72.9089 30.6781L69.8491 23.2989L73.2777 18.5717C73.7288 17.9498 73.6608 17.0922 73.1173 16.5492L63.4266 6.865C62.883 6.32188 62.0253 6.25437 61.4038 6.70609L56.6811 10.1369L49.2967 7.08141L48.3789 1.31672C48.258 0.558281 47.6039 0 46.8358 0L33.1347 0.005625C32.3664 0.0059375 31.7123 0.564844 31.592 1.32359L30.6783 7.09125L23.2991 10.1511L18.5719 6.7225C17.9502 6.27141 17.0925 6.33938 16.5494 6.88281L6.86516 16.5736C6.32203 17.1172 6.25469 17.9748 6.70625 18.5964L10.137 23.3191L7.08156 30.7034L1.31688 31.6213C0.558125 31.742 -0.000312369 32.3966 1.3109e-07 33.1648L0.00562513 46.8652C0.00593763 47.6334 0.564844 48.2877 1.32359 48.4078L7.09125 49.3217L10.1511 56.7009L6.7225 61.4281C6.27141 62.05 6.33938 62.9077 6.88281 63.4506L16.5736 73.1348C17.1172 73.678 17.975 73.7455 18.5964 73.2937L23.3191 69.863L30.7034 72.9184L31.6213 78.6831C31.742 79.4417 32.3961 80 33.1642 80L46.8652 79.9942C47.6334 79.9939 48.2875 79.435 48.4078 78.6763L49.3217 72.9086L56.7009 69.8488L61.4281 73.2773C62.05 73.7286 62.9077 73.6605 63.4506 73.117L73.1348 63.4263C73.678 62.8827 73.7453 62.025 73.2937 61.4034L69.863 56.6808L72.9184 49.2964L78.6831 48.3786C79.4419 48.2578 80.0003 47.6033 80 46.835L79.9945 33.1347Z" fill="#EE3425"/>
<circle cx="40" cy="40" r="25" fill="white"/>
<path d="M49.7203 43.7635L49.342 43.7261C48.6566 43.7261 48.0068 43.8665 47.4001 44.0913L35.8704 32.5597C36.0951 31.953 36.2356 31.3032 36.2356 30.6179L36.1981 30.2396C35.9997 27.3164 33.5915 25 30.6178 25C29.7526 25 28.9418 25.2116 28.2096 25.5618L31.9417 29.2939C32.1383 29.4905 32.2732 29.7227 32.363 29.968C32.6083 30.6309 32.4754 31.4062 31.9417 31.9418C31.5765 32.3069 31.0972 32.4904 30.6178 32.4904C30.3968 32.4904 30.1777 32.4418 29.968 32.3631C29.7227 32.2695 29.4905 32.1384 29.2938 31.9399L25.5618 28.2097C25.2116 28.9418 25 29.7527 25 30.6179C25 33.5915 27.3164 35.9997 30.2396 36.1982L30.6179 36.2357C31.3032 36.2357 31.953 36.0952 32.5597 35.8724L44.0875 47.4021C43.8665 48.0088 43.7261 48.6586 43.7261 49.3439L43.7654 49.7222C43.9602 52.6472 46.3702 54.9618 49.3439 54.9618C50.2091 54.9618 51.0217 54.754 51.7521 54.4L48.02 50.6679C47.8252 50.4731 47.6885 50.2391 47.5949 49.9957C47.3496 49.3328 47.4825 48.5557 48.02 48.0201C48.3814 47.6549 48.8645 47.4714 49.3439 47.4714C49.5648 47.4714 49.782 47.5182 49.9955 47.5988C50.2408 47.6905 50.4749 47.8216 50.6678 48.0201L54.3999 51.7522C54.7519 51.0181 54.9617 50.2092 54.9617 49.344C54.9598 46.3702 52.6434 43.962 49.7203 43.7635Z" fill="#EE3425"/>
</svg>

<svg width="80" height="80" fill="none" xmlns="http://www.w3.org/2000/svg"><path d="M79.995 33.135c0-.769-.56-1.423-1.318-1.543l-5.768-.914-3.06-7.38 3.429-4.726a1.562 1.562 0 0 0-.16-2.023l-9.691-9.684a1.562 1.562 0 0 0-2.023-.159l-4.723 3.43-7.384-3.055-.918-5.764A1.563 1.563 0 0 0 46.836 0L33.135.006c-.769 0-1.423.559-1.543 1.318l-.914 5.767-7.379 3.06-4.727-3.428a1.562 1.562 0 0 0-2.023.16l-9.684 9.69a1.563 1.563 0 0 0-.159 2.023l3.431 4.723-3.055 7.384-5.765.918A1.562 1.562 0 0 0 0 33.165l.006 13.7c0 .768.559 1.423 1.318 1.543l5.767.914 3.06 7.379-3.428 4.727a1.562 1.562 0 0 0 .16 2.023l9.69 9.684c.544.543 1.402.61 2.023.159l4.723-3.431 7.384 3.055.918 5.765c.121.759.775 1.317 1.543 1.317l13.701-.006c.768 0 1.422-.559 1.543-1.318l.914-5.767 7.379-3.06 4.727 3.428c.622.452 1.48.383 2.023-.16l9.684-9.69c.543-.544.61-1.402.159-2.024l-3.431-4.722 3.055-7.385 5.765-.917A1.562 1.562 0 0 0 80 46.835l-.005-13.7z" fill="#EE3425"/><circle cx="40" cy="40" r="25" fill="#fff"/><path d="M49.72 43.764l-.378-.038a5.57 5.57 0 0 0-1.942.365L35.87 32.56a5.572 5.572 0 0 0 .366-1.942l-.038-.378C36 27.316 33.592 25 30.618 25c-.865 0-1.676.212-2.408.562l3.732 3.732c.196.197.331.429.421.674a1.87 1.87 0 0 1-.421 1.974 1.868 1.868 0 0 1-1.324.548c-.221 0-.44-.048-.65-.127a1.863 1.863 0 0 1-.674-.423l-3.732-3.73A5.558 5.558 0 0 0 25 30.618c0 2.974 2.316 5.382 5.24 5.58l.378.038c.685 0 1.335-.14 1.942-.364l11.527 11.53a5.656 5.656 0 0 0-.36 1.942l.038.378c.195 2.925 2.605 5.24 5.579 5.24a5.5 5.5 0 0 0 2.408-.562l-3.732-3.732a1.912 1.912 0 0 1-.425-.672 1.867 1.867 0 0 1 1.749-2.525c.22 0 .438.047.651.128.246.092.48.223.673.421l3.732 3.732a5.54 5.54 0 0 0 .562-2.408c-.002-2.974-2.319-5.382-5.242-5.58z" fill="#EE3425"/></svg>
